X:1
T:Title
%%score { ( 1 3 ) | ( 2 4 ) }
L:1/8
Q:1/4=100
M:3/4
K:G
V:1 treble nm="Grand Piano"
V:3 treble 
V:2 treble 
V:4 treble 
V:1
 D2 G2 A2 | G2 F2 G2 | A4 z2 | B6 | c2 c2 A2 | B4 A2 | B2 A2 z ^C |[M:2/4] A4 |[M:1/4] D2 | %9
w: J.~B.~Dykes * *|||||||||
[M:3/4] z2 A2 c2 | B4 E2 | z2 B2 d2 | c4 A2 | z2 B2 z2 | B2 G2 [CEA]2 | D4 z2 | [G,B,G]6 |] %17
w: ||||||||
V:2
 [G,B,]2 [G,B,D]2 [G,B,D]2 | [A,CD]4 [B,D]2 | [EG]4 z2 | [G,DG]6 | [A,E]2 [G,A,E]2 [F,CD]2 | %5
 [G,B,D]4 [F,D]2 | D4 .[B,D]2 |[M:2/4] [D,F,D]4 |[M:1/4] [F,A,]2 |[M:3/4] [F,A,]4 [F,A,D]2 | %10
 [G,B,D]4 [G,B,]2 | [^G,B,]4 [G,B,E]2 | [A,CE]4 [G,CE]2 | [F,CD]4 [F,A,D]2 | [G,B,D]4 C,2 | %15
 z2 G,2 D,2 | G,,6 |] %17
V:3
 x6 | x6 | z2 A,2 A2 | x6 | x6 | x6 | z2 z2 G2 |[M:2/4] x4 |[M:1/4] x2 |[M:3/4] D4 z2 | x6 | %11
 E4 z2 | x6 | A2 z B, c2 | x6 | B,2 z2 [A,CF]2 | x6 |] %17
V:4
 x6 | x6 | C2 z2 [DF]2 | x6 | x6 | x6 | G,2 [F,A,]2 E,-[E,G,] |[M:2/4] x4 |[M:1/4] x2 |[M:3/4] x6 | %10
 x6 | x6 | x6 | x6 | x6 | D,4 z2 | x6 |] %17

